X: 167
T: No_77_Healing_Song.krn
N: Derived from No_77_Healing_Song.krn
%%abc-version 2.0
%%abcx-abcm2ps-target-version 5.9.1 (29 Sep 2008)
%%abc-creator hum2abc beta
%%abcx-conversion-date 2019/03/15 08:29:13
%%humdrum-veritas 2021721945
%%humdrum-veritas-data 3392471746
%%linebreak <none>
%%barnumbers 0
L: 1/8
M: 3/4
K: Gb clef=treble
DDD [I:setbarnb 1]| 
G3GD2 | 
F3F FF | 
E3ED2 | 
E3E EE | 
C3B,B,2 | 
B,3C CE | 
C3B,B,2 | 
B,3B, B,B, | 
B,3B,B,2 | 
[M:3/8]B,3 |]  



